X:1
T:John Brosnan's Reel
Z: Pierre Commes  irtrad-l 2001-5-15
C:
Q:1/4=120
M:C|
L:1/8
K:Ador
~E3 A ABcd | e2 ed cBAG | EG ~G2 EGDG | EG ~G2 eGdG |
EA ~A2 ABcd | e2 de cBAG | e2 de cBAG |1 EAAG A2 AG :|2 EAAG A2 cd |
|: eA ~A2 ABcd | e2 ag edBd | eA ~A2 ABce | (3dedBd GABd | eA ~A2 ABcd |
e2 ag edcd | e2 de cBAG |1 EAAG A2 Bd :|2 EAAG A2 z2 :|
